packages/symbols/svgs/duotone/glasses-duotone.svg

<svg width="24" height="24" viewBox="0 0 24 24" fill="none" xmlns="http://www.w3.org/2000/svg">
<g clip-path="url(#clip0_1279_4108)">
<path fill-rule="evenodd" clip-rule="evenodd" d="M4.06021 2.65826C4.20391 2.26307 4.57949 2 5 2H8C8.55228 2 9 2.44772 9 3C9 3.55228 8.55228 4 8 4H5.70043L2.4277 13H10C10.5523 13 11 13.4477 11 14V19C11 20.6523 9.65228 22 8 22H3C1.34772 22 0 20.6523 0 19V14C0 13.8718 0.0241399 13.7492 0.0681236 13.6365L4.06021 2.65826ZM2 15V19C2 19.5477 2.45228 20 3 20H8C8.54772 20 9 19.5477 9 19V15H2Z" fill="black"/>
<path fill-rule="evenodd" clip-rule="evenodd" d="M15 3C15 2.44772 15.4477 2 16 2H19C19.4205 2 19.7961 2.26307 19.9398 2.65826L23.9319 13.6365C23.9759 13.7492 24 13.8718 24 14V19C24 20.6523 22.6523 22 21 22H16C14.3477 22 13 20.6523 13 19V14C13 13.4477 13.4477 13 14 13H21.5723L18.2996 4H16C15.4477 4 15 3.55228 15 3ZM22 15H15V19C15 19.5477 15.4523 20 16 20H21C21.5477 20 22 19.5477 22 19V15Z" fill="black"/>
<path opacity="0.5" fill-rule="evenodd" clip-rule="evenodd" d="M9 14C9 13.4477 9.44772 13 10 13H14C14.5523 13 15 13.4477 15 14C15 14.5523 14.5523 15 14 15H10C9.44772 15 9 14.5523 9 14Z" fill="black"/>
</g>
<defs>
<clipPath id="clip0_1279_4108">
<rect width="24" height="24" fill="white"/>
</clipPath>
</defs>
</svg>

<svg width="24" height="24" viewBox="0 0 24 24" xmlns="http://www.w3.org/2000/svg"><g clip-path="url(#a)" fill-rule="evenodd" clip-rule="evenodd"><path d="M4.06 2.658A1 1 0 0 1 5 2h3a1 1 0 0 1 0 2H5.7l-3.272 9H10a1 1 0 0 1 1 1v5c0 1.652-1.348 3-3 3H3c-1.652 0-3-1.348-3-3v-5c0-.128.024-.25.068-.364L4.06 2.659ZM2 15v4c0 .548.452 1 1 1h5c.548 0 1-.452 1-1v-4H2ZM15 3a1 1 0 0 1 1-1h3a1 1 0 0 1 .94.658l3.992 10.979A.997.997 0 0 1 24 14v5c0 1.652-1.348 3-3 3h-5c-1.652 0-3-1.348-3-3v-5a1 1 0 0 1 1-1h7.572L18.3 4H16a1 1 0 0 1-1-1Zm7 12h-7v4c0 .548.452 1 1 1h5c.548 0 1-.452 1-1v-4Z"/><path opacity=".5" d="M9 14a1 1 0 0 1 1-1h4a1 1 0 1 1 0 2h-4a1 1 0 0 1-1-1Z"/></g><defs><clipPath id="a"><path fill="#fff" d="M0 0h24v24H0z"/></clipPath></defs></svg>
